packages/icons/src/SVG/maximize.svg

<!-- Generated by IcoMoon.io -->
<svg version="1.1" xmlns="http://www.w3.org/2000/svg" width="12" height="12" viewBox="0 0 12 12">
<title>maximize</title>
<path d="M0 0h12v12h-12v-12zM11 3h-10v8h10v-8z"></path>
</svg>

<svg width="12" height="12" viewBox="0 0 12 12" >
<path fill-rule="evenodd" clip-rule="evenodd" d="M0 0H12V12H0V0ZM11 3H1V11H11V3Z" />
</svg>
